src/main/resources/icons/DevkitIcons/META-INF/pluginIcon.svg

<svg id="Layer_1" xmlns="http://www.w3.org/2000/svg" width="40" height="40" viewBox="0 0 40 40">
  <defs>
    <linearGradient id="linear-gradient" x1="32.10011" y1="32.56539" x2="5.44722" y2="5.9125" gradientUnits="userSpaceOnUse">
      <stop offset="0.17208" stop-color="#ff29ff"/>
      <stop offset="1" stop-color="#00a0ff"/>
    </linearGradient>
  </defs>
  <path d="M30.11335,16.13194V4H24.01359V16.13194H16.04666V4H9.94691V16.13194H4V28.00671C4,32.01456,7.92321,36,11.93093,36H28.03674C31.97024,36,36,31.86613,36,28.08092v-11.949Z" fill="url(#linear-gradient)"/>
</svg>

<svg xmlns="http://www.w3.org/2000/svg" width="40" height="40" viewBox="0 0 40 40"><rect id="frame" width="40" height="40" fill="none"/><defs><linearGradient id="a" x1="32.1" y1="32.565" x2="5.447" y2="5.912" gradientUnits="userSpaceOnUse"><stop offset=".172" stop-color="#ff29ff"/><stop offset="1" stop-color="#00a0ff"/></linearGradient></defs><path d="M30.113 16.132V4h-6.1v12.132h-7.966V4h-6.1v12.132H4v11.875C4 32.015 7.923 36 11.93 36h16.107C31.97 36 36 31.866 36 28.08V16.133z" fill="url(#a)"/></svg>
